!!!!SEGMENT: Con2006-Nigra_sum.krn
!!!id: Con2006
!!!AGN: Motet
!!!SCT: Smijers (1934)
!!!voices: 4
!!!COM: Jean Conseil
!!!OTL: Nigra sum
**kern	**kern	**kern	**kern
*part4	*part3	*part2	*part1
*staff4	*staff3	*staff2	*staff1
*I"Bassus	*I"Tenor	*I"Altus	*I"Superius
*I'B	*I'T	*I'A	*I'S
*clefF4	*clefGv2	*clefGv2	*clefGv2
*k[]	*k[]	*k[]	*k[]
*C:	*C:	*C:	*C:
*M2/1	*M2/1	*M2/1	*M2/1
*met(C|)	*met(C|)	*met(C|)	*met(C|)
!!Section: Prima pars: Nigra sum
!!!OMD: Prima pars: Nigra sum
=1	=1	=1	=1
0E	0E	0B	0e
=2	=2	=2	=2
0E	0G	0B	0e
=3	=3	=3	=3
0AA	0A	0c	0e
=4	=4	=4	=4
1.C	1G	1c	0e
.	[1E	1G	.
2BB	.	.	.
=5	=5	=5	=5
0AA	2E]	1A	0c
.	2C	.	.
.	1E	[1c	.
=6	=6	=6	=6
0GG	0G	2c]	0d
.	.	4B	.
.	.	4A	.
.	.	1B	.
=7	=7	=7	=7
0C	1G	0c	[0e
.	2r	.	.
.	2G	.	.
=8	=8	=8	=8
0r	2A	1r	0e]
.	1c	.	.
.	.	2r	.
.	2B	2G	.
=9	=9	=9	=9
0r	2c	2A	0r
.	2C	1c	.
.	1G	.	.
.	.	2B	.
=10	=10	=10	=10
0r	1A	2.c	2r
.	.	.	2c
.	.	8BL	.
.	.	8AJ	.
.	2G	2B	2d
.	2F	2c	[2f
=11	=11	=11	=11
2r	1G	2B	2f]
2C	.	2c	2e
2D	1F	1A	2f
[2F	.	.	2c
=12	=12	=12	=12
2F]	2r	1c	1g
2E	2G	.	.
2F	2A	2f	1c
2C	[2c	2e	.
=13	=13	=13	=13
1G	2c]	1g	2r
.	2B	.	2d
1C	2c	2g	2e
.	2G	2c	[2g
=14	=14	=14	=14
2r	1d	2B	2g]
2D	.	2A	2f
2E	1G	2.e	2.g
[2C	.	.	.
.	.	4d	4f
=15	=15	=15	=15
2C]	2r	2c	2e
2BB	2D	2d	2d
2C	2E	2G	2c
2GG	[2G	2B	2d
=16	=16	=16	=16
1D	2G]	2A	1d
.	2F	2A	.
1GG	2G	2B	1B
.	2D	[2d	.
=17	=17	=17	=17
2r	1A	2d]	1e
2AA	.	2c	.
2BB	1D	2.d	2d
[2D	.	.	[2f
.	.	4d	.
=18	=18	=18	=18
2D]	1A	2D	2f]
2C	.	2E	2e
2D	2r	2F	1d
2GG	2D	[2G	.
=19	=19	=19	=19
2.C	2E	4G]	1c
.	.	4F	.
.	1G	4E	.
4BB	.	4D	.
1AA	.	1C	2r
.	2F	.	2A
=20	=20	=20	=20
1GG	2G	1D	2B
.	2D	.	1d
1AA	2F	2r	.
.	2E	2A	2c
=21	=21	=21	=21
1.GG	2.G	2B	2d
.	.	1d	2G
.	4F	.	.
.	1E	.	2B
2AA	.	2c	2A
=22	=22	=22	=22
2BB	2D	2d	2G
2C	2E	2G	2c
2GG	2D	2B	2d
2D	2F	2A	[2f
=23	=23	=23	=23
2E	4G	1G	4f]
.	4C	.	4e
2C	2.c	.	1e
1F	.	1A	.
.	4B	.	.
.	[2A	.	2d
=24	=24	=24	=24
1E	2A]	1B	1e
.	2G	.	.
[1AA	2.c	2r	[1e
.	.	2A	.
.	4B	.	.
=25	=25	=25	=25
1AA]	1A	1.c	2e]
.	.	.	2c
1r	1G	.	1d
.	.	2B	.
=26	=26	=26	=26
1AA	0r	1A	0e
[1C	.	1G	.
=27	=27	=27	=27
2C]	1r	2A	0r
2BB	.	2B	.
1AA	1E	1c	.
=28	=28	=28	=28
1GG	1.G	1B	1r
1D	.	1A	1d
.	2F	.	.
=29	=29	=29	=29
0r	1E	2B	1.g
.	.	2G	.
.	1D	2.A	.
.	.	.	2f
.	.	4B	.
=30	=30	=30	=30
1AA	1A	1c	1e
[1C	1G	2.c	1e
.	.	4B	.
=31	=31	=31	=31
2C]	1D	4G	1d
.	.	4A	.
2BB	.	2B	.
1AA	1A	1c	2e
.	.	.	2f
=32	=32	=32	=32
1GG	2B	1d	2.g
.	1G	.	.
.	.	.	4f
2C	.	2c	2e
2D	2F	[2B	[2d
=33	=33	=33	=33
1E	1G	4B]	2d]
.	.	4A	.
.	.	1G	2c#i
1D	1A	.	[1d
.	.	2F#i	.
=34	=34	=34	=34
1GG	1B	1G	1d]
1r	1A	[1c	1r
=35	=35	=35	=35
1.C	1.G	2c]	1.e
.	.	2c	.
.	.	[1c	.
2C	2G	.	2e
=36	=36	=36	=36
1C	1G	1c]	1e
1GG	1G	1B	1d
=37	=37	=37	=37
1C	2G	1r	2r
.	2A	.	2c
2G	2B	2r	2d
2E	2c	2G	2e
=38	=38	=38	=38
1D	1d	2A	1f
.	.	2B	.
1C	[1G	1c	1e
=39	=39	=39	=39
1GG	1G]	1B	2r
.	.	.	2d
1D	1F	2r	1f
.	.	2A	.
=40	=40	=40	=40
2AA	2A	1c	1e
2C	2G	.	.
1GG	1G	1B	2d
.	.	.	2d
=41	=41	=41	=41
1D	2F	2A	1.f
.	1A	2d	.
2AA	.	1c	.
2C	2G	.	2e
=42	=42	=42	=42
1D	1F	1A	1d
[1AA	[1E	[1A	[1c
=43	=43	=43	=43
0AA_	0E]	0A_	1c]
.	.	.	2r
.	.	.	2c
=44	=44	=44	=44
1AA]	2r	1A]	1c
.	2F	.	.
1r	1F	1r	1A
=45	=45	=45	=45
0r	1D	0r	2.d
.	.	.	4c
.	2.G	.	2B
.	.	.	2A
.	4F	.	.
=46	=46	=46	=46
0r	2E	0r	1B
.	2D	.	.
.	2E	.	1c
.	2F	.	.
=47	=47	=47	=47
0r	2G	0r	2B
.	1A	.	2A
.	.	.	1B
.	2G#i	.	.
=48	=48	=48	=48
1r	0A	2r	1A
.	.	2c	.
2r	.	1c	1r
2F	.	.	.
=49	=49	=49	=49
1F	0r	1A	0r
1D	.	2.d	.
.	.	4c	.
=50	=50	=50	=50
2.G	0r	2B	0r
.	.	2A	.
4F	.	.	.
2E	.	1B	.
2D	.	.	.
=51	=51	=51	=51
1E	0r	2G	0r
.	.	2.c	.
2C	.	.	.
.	.	4B	.
2D	.	[2A	.
=52	=52	=52	=52
1BB	1r	2A]	0r
.	.	2G#i	.
[1AA	[1A	1A	.
=53	=53	=53	=53
1AA]	1A]	1r	1r
[1AA	[1A	[1c	[1e
=54	=54	=54	=54
1AA]	1A]	1c]	1e]
[1C	[1G	[1c	[1e
=55	=55	=55	=55
1C]	0G_	1c]	1e]
[1GG	.	[1B	[1d
=56	=56	=56	=56
1GG]	1G]	1B]	0d_
[1D	[1F	[1A	.
=57	=57	=57	=57
1D]	1F]	1A]	1d]
1AA	1E	[1A	1c
=58	=58	=58	=58
1D	1F	2A]	1d
.	.	2B	.
1C	[1G	[1c	1e
=59	=59	=59	=59
0D	1G]	2c]	0f
.	.	4B	.
.	.	4A	.
.	1F	1B	.
=60	=60	=60	=60
1C	1G	0c	[0e
1AA	2r	.	.
.	2A	.	.
=61	=61	=61	=61
1E	2A	1B	1e]
.	2G	.	.
2r	[1c	1r	2r
4C	.	.	2e
4D	.	.	.
=62	=62	=62	=62
4E	2c]	1r	2e
4F	.	.	.
2G	2B	.	2d
2D	2A	2r	[1f
2F	2A	2c	.
=63	=63	=63	=63
1C	1G	2c	2f]
.	.	2c	2e
1r	1B	1G	2d
.	.	.	2d
=64	=64	=64	=64
2r	1.e	2r	1c
2AA	.	2A	.
2E	.	2A	1B
2E	2e	2G	.
=65	=65	=65	=65
2AA	1e	1.c	2r
4C	.	.	2e
4D	.	.	.
4E	1r	.	2e
4F	.	.	.
2G	.	2B	2d
=66	=66	=66	=66
2D	2r	2A	1.f
2F	2c	2A	.
1C	2c	1G	.
.	2c	.	2e
=67	=67	=67	=67
1D	2A	1F	2d
.	2A	.	2d
2AA	[1c	2.E	2c
4C	.	.	2e
4D	.	4F	.
=68	=68	=68	=68
4E	2c]	4G	2e
4F	.	4A	.
2G	2B	4B	2d
.	.	4c	.
2D	1A	2d	[1f
2F	.	[2c	.
=69	=69	=69	=69
1C	1G	2c]	2f]
.	.	2c	2e
1D	1F	1A	2d
.	.	.	2d
=70	=70	=70	=70
0AA	0E	0A	0c
=71	=71	=71	=71
1r	1r	0r	1f
1F	1A	.	2f
.	.	.	2f
=72	=72	=72	=72
2F	2A	1c	0f
2F	2A	.	.
1F	1A	2c	.
.	.	2c	.
=73	=73	=73	=73
0C	1G	1c	0e
.	1c	[1G	.
=74	=74	=74	=74
1r	1B	1G]	1d
[1F	1A	1r	[1f
=75	=75	=75	=75
2F]	2A	1c	2f]
2F	2A	.	2f
2F	1A	2c	1f
2F	.	2c	.
=76	=76	=76	=76
1F	1A	1c	1f
[1C	1G	1c	[1e
=77	=77	=77	=77
1C]	1c	0G	1e]
[1GG	1B	.	[1d
=78	=78	=78	=78
1GG]	1.d	1G	1d]
1r	.	[1d	1r
.	2c	.	.
=79	=79	=79	=79
1.G	2B	2d]	1r
.	2A	2c	.
.	1G	2B	[1g
2F	.	2A	.
=80	=80	=80	=80
2E	1.C	1.G	2g]
2D	.	.	2f
2C	.	.	2e
2BB	2D	2G	2d
=81	=81	=81	=81
1AA	1E	1.A	1c
1D	4F	.	1d
.	4G	.	.
.	4A	2F	.
.	4B	.	.
=82	=82	=82	=82
2C	2c	2G	2e
2.D	1A	1d	2.f
4AA	.	.	4e
2C	2G	2c	[2e
=83	=83	=83	=83
1D	1F	1A	2e]
.	.	.	2d
[1G	[1El	[1B	2e
.	.	.	2e
=84	=84	=84	=84
2G]	0E_	1B]	1.g
2F	.	.	.
2E	.	[1G	.
2D	.	.	2f
=85	=85	=85	=85
2C	0E_	1G]	2e
2BB	.	.	2d
2AA	.	2A	2c
2GG	.	2B	2B
=86	=86	=86	=86
1AA	0E_	1c	2A
.	.	.	2A
[1EEl	.	[1Bl	[1Gl
=87	=87	=87	=87
00EE]	00E]	00B]	00G]
==	==	==	==
*-	*-	*-	*-
!!!system-decoration: [*]
!!!RDF**kern: i = editorial accidental
!!!RDF**kern: l = terminal long
!!!ENC: Benjamin Ory
!!!END: 2022/4/14
!!!EED: Benjamin Ory
!!!EEV: 2022/04/14
!!!YEC: Copyright 2022 Benjamin Ory, All Rights Reserved
!!!ONB: Translated from MusicXML on 2022/04/14
